images/zhuyin/14.svg

<svg width="50" height="50" viewBox="0 0 50 50" fill="none" xmlns="http://www.w3.org/2000/svg">
<path d="M16.5625 17.8438H16.8438C17.2969 17.9688 17.6719 18.0312 17.9688 18.0312C18.4844 18.0312 19.2578 17.9375 20.2891 17.75C22.2734 17.3281 24.7188 16.9375 27.625 16.5781C29.7188 16.2969 30.9062 16.0547 31.1875 15.8516C31.3281 15.8047 31.5469 15.7812 31.8438 15.7812C32.0781 15.7812 32.3516 15.8828 32.6641 16.0859C33.3047 16.5547 33.625 16.9609 33.625 17.3047C33.625 17.4766 33.5 17.5625 33.25 17.5625C33.1094 17.5625 32.8672 17.5391 32.5234 17.4922C32.1484 17.4297 31.9219 17.3984 31.8438 17.3984C30.8125 17.3984 29.0234 17.5703 26.4766 17.9141C26.8047 18.2734 26.9688 18.5625 26.9688 18.7812C26.9688 19.0156 26.9297 19.2734 26.8516 19.5547C26.6641 20.2109 26.6172 22.6172 26.7109 26.7734C26.7734 30.3672 26.7422 32.4375 26.6172 32.9844C26.4766 33.4531 26.2812 33.6875 26.0312 33.6875C25.8125 33.6875 25.5 33.25 25.0938 32.375C24.8438 31.8281 24.7188 31.3594 24.7188 30.9688C24.7188 30.75 24.7891 30.3594 24.9297 29.7969C25.0391 29.4062 25.0938 26.9297 25.0938 22.3672C25.0938 20.4453 24.9141 19.0547 24.5547 18.1953C22.3047 18.5547 20.7031 18.9219 19.75 19.2969C19.2656 19.5156 18.9219 19.625 18.7188 19.625C18.3125 19.625 17.7812 19.4219 17.125 19.0156C16.5625 18.6094 16.2812 18.2812 16.2812 18.0312C16.2812 17.9062 16.375 17.8438 16.5625 17.8438Z" fill="#333333"/>
<path d="M16.8438 17.8438L16.9767 17.3618L16.9115 17.3438H16.8438V17.8438ZM20.2891 17.75L20.3785 18.2419L20.3858 18.2406L20.393 18.2391L20.2891 17.75ZM27.625 16.5781L27.6864 17.0744L27.6916 17.0737L27.625 16.5781ZM31.1875 15.8516L31.0294 15.3772L30.9568 15.4014L30.8948 15.4462L31.1875 15.8516ZM32.6641 16.0859L32.9593 15.6824L32.9482 15.6743L32.9366 15.6667L32.6641 16.0859ZM32.5234 17.4922L32.4412 17.9854L32.4485 17.9866L32.4559 17.9876L32.5234 17.4922ZM26.4766 17.9141L26.4097 17.4186L25.4637 17.5462L26.1073 18.2512L26.4766 17.9141ZM26.8516 19.5547L27.3323 19.6921L27.3333 19.6885L26.8516 19.5547ZM26.7109 26.7734L27.2109 26.7647L27.2108 26.7622L26.7109 26.7734ZM26.6172 32.9844L27.0961 33.128L27.1009 33.1121L27.1046 33.0958L26.6172 32.9844ZM25.0938 32.375L24.639 32.5829L24.6402 32.5856L25.0938 32.375ZM24.9297 29.7969L24.448 29.662L24.4446 29.6756L24.9297 29.7969ZM24.5547 18.1953L25.016 18.0024L24.8642 17.6395L24.4758 17.7016L24.5547 18.1953ZM19.75 19.2969L19.5669 18.8316L19.5555 18.8361L19.5442 18.8412L19.75 19.2969ZM17.125 19.0156L16.8323 19.421L16.8467 19.4314L16.8618 19.4408L17.125 19.0156ZM16.5625 18.3438H16.8438V17.3438H16.5625V18.3438ZM16.7108 18.3257C17.1852 18.4566 17.6087 18.5312 17.9688 18.5312V17.5312C17.735 17.5312 17.4086 17.4809 16.9767 17.3618L16.7108 18.3257ZM17.9688 18.5312C18.5314 18.5312 19.3414 18.4305 20.3785 18.2419L20.1996 17.2581C19.1742 17.4445 18.4373 17.5312 17.9688 17.5312V18.5312ZM20.393 18.2391C22.3587 17.8212 24.7887 17.4327 27.6864 17.0743L27.5636 16.0819C24.6488 16.4423 22.1882 16.8351 20.1851 17.2609L20.393 18.2391ZM27.6916 17.0737C28.7427 16.9325 29.5759 16.7999 30.1859 16.6755C30.4903 16.6134 30.7473 16.5517 30.9517 16.4897C31.1399 16.4327 31.3371 16.3603 31.4802 16.2569L30.8948 15.4462C30.8973 15.4444 30.8406 15.4785 30.6616 15.5327C30.4988 15.5821 30.2753 15.6366 29.986 15.6956C29.4085 15.8134 28.601 15.9425 27.5584 16.0826L27.6916 17.0737ZM31.3456 16.3259C31.4064 16.3057 31.558 16.2812 31.8438 16.2812V15.2812C31.5358 15.2812 31.2499 15.3037 31.0294 15.3772L31.3456 16.3259ZM31.8438 16.2812C31.9399 16.2812 32.1164 16.3263 32.3916 16.5052L32.9366 15.6667C32.5867 15.4393 32.2164 15.2812 31.8438 15.2812V16.2812ZM32.3688 16.4895C32.6698 16.7097 32.8708 16.8978 32.9921 17.0518C33.1163 17.2092 33.125 17.2894 33.125 17.3047H34.125C34.125 16.9762 33.9736 16.6814 33.7774 16.4326C33.5785 16.1803 33.2989 15.9309 32.9593 15.6824L32.3688 16.4895ZM33.125 17.3047C33.125 17.287 33.1284 17.2474 33.1517 17.1993C33.1761 17.149 33.2122 17.1106 33.248 17.086C33.2645 17.0747 33.2785 17.0679 33.2878 17.064C33.2925 17.0621 33.2962 17.0608 33.2986 17.0601C33.301 17.0593 33.3023 17.059 33.3024 17.059C33.3024 17.059 33.3014 17.0593 33.2991 17.0596C33.2968 17.06 33.2935 17.0604 33.289 17.0609C33.2799 17.0618 33.2671 17.0625 33.25 17.0625V18.0625C33.4168 18.0625 33.6304 18.0367 33.8145 17.9101C34.0324 17.7603 34.125 17.5298 34.125 17.3047H33.125ZM33.25 17.0625C33.1471 17.0625 32.9354 17.0437 32.591 16.9968L32.4559 17.9876C32.799 18.0344 33.0717 18.0625 33.25 18.0625V17.0625ZM32.6056 16.999C32.4161 16.9674 32.2605 16.9431 32.1406 16.9266C32.0324 16.9116 31.9226 16.8984 31.8438 16.8984V17.8984C31.843 17.8984 31.8856 17.9009 32.0039 17.9172C32.1106 17.9319 32.2558 17.9545 32.4412 17.9854L32.6056 16.999ZM31.8438 16.8984C30.7751 16.8984 28.9557 17.0749 26.4097 17.4186L26.5434 18.4096C29.0912 18.0657 30.8499 17.8984 31.8438 17.8984V16.8984ZM26.1073 18.2512C26.2567 18.4148 26.3536 18.5463 26.4109 18.6472C26.4706 18.7524 26.4688 18.792 26.4688 18.7812H27.4688C27.4688 18.5517 27.3849 18.3374 27.2805 18.1536C27.1737 17.9654 27.0246 17.7727 26.8458 17.5769L26.1073 18.2512ZM26.4688 18.7812C26.4688 18.9609 26.4387 19.173 26.3698 19.4209L27.3333 19.6885C27.4207 19.3739 27.4688 19.0703 27.4688 18.7812H26.4688ZM26.3708 19.4173C26.3089 19.634 26.2683 19.9515 26.2388 20.3368C26.2085 20.7328 26.1877 21.2354 26.1759 21.8418C26.1522 23.0552 26.1641 24.7038 26.2111 26.7847L27.2108 26.7622C27.164 24.6868 27.1524 23.0542 27.1757 21.8613C27.1873 21.2646 27.2076 20.7828 27.2358 20.4132C27.2649 20.0329 27.3005 19.8035 27.3323 19.692L26.3708 19.4173ZM26.211 26.7821C26.2422 28.5769 26.2499 29.9867 26.2344 31.0139C26.2186 32.0661 26.178 32.6617 26.1298 32.873L27.1046 33.0958C27.1813 32.7602 27.2189 32.0472 27.2343 31.029C27.2501 29.9859 27.2421 28.5637 27.2109 26.7647L26.211 26.7821ZM26.1383 32.8407C26.077 33.0449 26.0174 33.1481 25.9811 33.1916C25.9655 33.2103 25.9624 33.208 25.9756 33.2011C25.9913 33.1929 26.0121 33.1875 26.0312 33.1875V34.1875C26.3371 34.1875 26.5797 34.0354 26.7493 33.8318C26.9084 33.6409 27.0167 33.3926 27.0961 33.128L26.1383 32.8407ZM26.0312 33.1875C26.1427 33.1875 26.1927 33.2403 26.1675 33.2195C26.1481 33.2036 26.1049 33.1601 26.0397 33.0688C25.9102 32.8876 25.7459 32.5922 25.5473 32.1644L24.6402 32.5856C24.8479 33.0328 25.0429 33.3937 25.2259 33.65C25.3169 33.7774 25.4183 33.898 25.5318 33.9914C25.6393 34.08 25.8105 34.1875 26.0312 34.1875V33.1875ZM25.5485 32.1671C25.3138 31.6538 25.2188 31.2595 25.2188 30.9688H24.2188C24.2188 31.4593 24.3737 32.0025 24.639 32.5829L25.5485 32.1671ZM25.2188 30.9688C25.2188 30.8198 25.273 30.4854 25.4148 29.9181L24.4446 29.6756C24.3052 30.2334 24.2188 30.6802 24.2188 30.9688H25.2188ZM25.4112 29.9317C25.4561 29.7712 25.481 29.4839 25.5006 29.1414C25.5216 28.7744 25.5389 28.279 25.5526 27.6575C25.5801 26.4137 25.5938 24.6496 25.5938 22.3672H24.5938C24.5938 24.6473 24.5801 26.4027 24.5529 27.6354C24.5392 28.2523 24.5223 28.7344 24.5023 29.0842C24.4923 29.2594 24.4817 29.3974 24.4709 29.5004C24.4655 29.5519 24.4603 29.5918 24.4556 29.6214C24.4506 29.6532 24.4476 29.6643 24.4482 29.6621L25.4112 29.9317ZM25.5938 22.3672C25.5938 20.4345 25.416 18.9589 25.016 18.0024L24.0934 18.3882C24.4122 19.1505 24.5938 20.4561 24.5938 22.3672H25.5938ZM24.4758 17.7016C22.2226 18.0615 20.5745 18.4352 19.5669 18.8316L19.9331 19.7622C20.8317 19.4086 22.3867 19.0479 24.6335 18.6891L24.4758 17.7016ZM19.5442 18.8412C19.3122 18.9459 19.1243 19.0197 18.9773 19.0665C18.8227 19.1157 18.7437 19.125 18.7188 19.125V20.125C18.8969 20.125 19.0914 20.0796 19.2805 20.0194C19.4772 19.9568 19.7034 19.8666 19.9558 19.7526L19.5442 18.8412ZM18.7188 19.125C18.457 19.125 18.0252 18.9848 17.3882 18.5905L16.8618 19.4408C17.5373 19.8589 18.168 20.125 18.7188 20.125V19.125ZM17.4177 18.6103C17.1517 18.4182 16.9761 18.2611 16.8718 18.1394C16.7573 18.0059 16.7812 17.9763 16.7812 18.0312H15.7812C15.7812 18.3362 15.9458 18.5957 16.1126 18.7902C16.2896 18.9967 16.5358 19.2068 16.8323 19.421L17.4177 18.6103ZM16.7812 18.0312C16.7812 18.0628 16.7751 18.1147 16.746 18.1728C16.7159 18.233 16.6723 18.2777 16.6289 18.3067C16.5555 18.3556 16.5085 18.3438 16.5625 18.3438V17.3438C16.429 17.3438 16.2414 17.3631 16.0742 17.4746C15.8712 17.6099 15.7812 17.8231 15.7812 18.0312H16.7812Z" fill="#333333"/>
</svg>

<svg xmlns="http://www.w3.org/2000/svg" width="50" height="50" fill="none"><path fill="#333" d="M16.563 17.844h.28c.454.125.829.187 1.126.187.515 0 1.289-.093 2.32-.281 1.984-.422 4.43-.813 7.336-1.172 2.094-.281 3.281-.523 3.563-.726.14-.047.359-.07.656-.07.234 0 .508.1.82.304.64.469.961.875.961 1.219 0 .172-.125.258-.375.258-.14 0-.383-.024-.727-.07a6.558 6.558 0 0 0-.68-.095c-1.03 0-2.82.172-5.366.516.328.36.492.648.492.867 0 .235-.04.492-.117.774-.188.656-.235 3.062-.141 7.218.062 3.594.031 5.665-.094 6.211-.14.47-.336.703-.586.703-.218 0-.531-.437-.937-1.312-.25-.547-.375-1.016-.375-1.406 0-.219.07-.61.21-1.172.11-.39.165-2.867.165-7.43 0-1.922-.18-3.312-.54-4.172-2.25.36-3.85.727-4.804 1.102-.484.219-.828.328-1.031.328-.407 0-.938-.203-1.594-.61-.563-.406-.844-.734-.844-.984 0-.125.094-.187.282-.187Z"/><path fill="#333" d="m16.844 17.844.133-.482-.066-.018h-.067v.5Zm3.445-.094.09.492.007-.001.007-.002-.104-.489Zm7.336-1.172.061.496h.006l-.067-.496Zm3.563-.726-.159-.475-.072.024-.062.045.293.406Zm1.476.234.295-.404-.01-.008-.012-.007-.273.419Zm-.14 1.406-.083.493.008.002h.007l.067-.495Zm-6.047.422-.067-.495-.946.127.643.705.37-.337Zm.375 1.64.48.138.001-.003-.481-.134Zm-.141 7.22.5-.01v-.002l-.5.011Zm-.094 6.21.48.144.004-.016.004-.016-.488-.112Zm-1.523-.609-.455.208.001.003.454-.211Zm-.164-2.578-.482-.135-.003.014.485.12Zm-.375-11.602.461-.193-.152-.362-.388.062.079.493Zm-4.805 1.102-.183-.465-.012.004-.01.005.205.456Zm-2.625-.281-.293.405.015.01.015.01.263-.425Zm-.563-.672h.282v-1h-.282v1Zm.149-.018c.474.13.898.205 1.258.205v-1c-.234 0-.56-.05-.992-.17l-.266.965Zm1.258.205c.562 0 1.372-.1 2.41-.29l-.18-.983c-1.025.187-1.762.273-2.23.273v1Zm2.424-.292c1.966-.418 4.396-.806 7.293-1.165l-.122-.992c-2.915.36-5.376.753-7.379 1.179l.208.978Zm7.299-1.165a39.496 39.496 0 0 0 2.494-.399c.304-.062.561-.123.766-.185.188-.057.385-.13.528-.233l-.585-.81c.002-.003-.054.032-.233.086-.163.05-.387.104-.676.163a38.57 38.57 0 0 1-2.428.387l.134.99Zm3.654-.748c.06-.02.212-.045.498-.045v-1c-.308 0-.594.023-.815.096l.317.949Zm.498-.045c.096 0 .272.045.548.224l.545-.838c-.35-.228-.72-.386-1.093-.386v1Zm.525.209c.3.22.502.408.623.562.124.157.133.237.133.253h1c0-.329-.151-.624-.348-.872-.199-.253-.478-.502-.818-.75l-.59.806Zm.756.815a.295.295 0 0 1 .163-.24.123.123 0 0 1 .014-.006H33.3l-.01.002a.404.404 0 0 1-.039.002v1c.167 0 .38-.026.565-.153.217-.15.31-.38.31-.605h-1Zm.125-.242c-.103 0-.315-.02-.659-.066l-.135.99c.343.047.616.076.794.076v-1Zm-.644-.064a17.3 17.3 0 0 0-.465-.072 2.426 2.426 0 0 0-.297-.029v1c-.001 0 .042.003.16.02.107.014.252.037.437.067l.165-.986Zm-.762-.1c-1.069 0-2.888.176-5.434.52l.133.99c2.548-.343 4.307-.51 5.3-.51v-1Zm-5.737 1.352c.15.164.247.295.304.396.06.105.058.145.058.134h1c0-.23-.084-.444-.189-.627a3.286 3.286 0 0 0-.434-.577l-.739.674Zm.362.53c0 .18-.03.392-.1.64l.964.268c.088-.315.136-.619.136-.908h-1Zm-.098.636c-.062.217-.103.534-.132.92-.03.396-.051.898-.063 1.505-.024 1.213-.012 2.862.035 4.943l1-.023c-.047-2.075-.059-3.708-.035-4.9.011-.597.032-1.08.06-1.449.029-.38.064-.61.096-.721l-.961-.275Zm-.16 7.365c.031 1.795.039 3.205.023 4.232-.015 1.052-.056 1.648-.104 1.859l.975.223c.076-.336.114-1.049.13-2.067.015-1.043.007-2.465-.024-4.264l-1 .017Zm-.073 6.059c-.061.204-.12.307-.157.35-.016.02-.019.017-.005.01a.126.126 0 0 1 .055-.014v1a.926.926 0 0 0 .718-.355c.16-.191.268-.44.347-.704l-.958-.287Zm-.107.346c.112 0 .162.053.137.032a.84.84 0 0 1-.128-.15c-.13-.181-.294-.477-.493-.905l-.907.422c.208.447.403.808.586 1.064.09.127.192.248.306.341a.79.79 0 0 0 .5.197v-1Zm-.482-1.02c-.235-.513-.33-.908-.33-1.198h-1c0 .49.155 1.033.42 1.614l.91-.416Zm-.33-1.198c0-.15.054-.484.196-1.05l-.97-.243c-.14.557-.226 1.004-.226 1.293h1Zm.192-1.037c.045-.16.07-.448.09-.79.02-.368.038-.863.052-1.485.027-1.243.04-3.007.04-5.29h-1c0 2.28-.013 4.036-.04 5.268a44 44 0 0 1-.05 1.45c-.01.174-.021.312-.032.415-.006.052-.01.092-.015.121-.005.032-.008.043-.008.041l.963.27Zm.183-7.565c0-1.933-.178-3.408-.578-4.365l-.923.386c.32.762.5 2.068.5 3.98h1Zm-1.118-4.665c-2.253.36-3.901.733-4.91 1.13l.367.93c.899-.353 2.454-.714 4.7-1.073l-.157-.987Zm-4.932 1.14c-.232.104-.42.178-.567.225-.154.049-.233.058-.258.058v1c.178 0 .372-.045.561-.106a6.4 6.4 0 0 0 .676-.266l-.412-.912Zm-.825.283c-.262 0-.694-.14-1.33-.535l-.527.85c.675.419 1.306.685 1.857.685v-1Zm-1.301-.515a3.22 3.22 0 0 1-.546-.47c-.115-.134-.09-.164-.09-.109h-1c0 .305.164.565.33.76.178.206.424.416.72.63l.586-.81Zm-.637-.579a.35.35 0 0 1-.152.276c-.073.049-.12.037-.066.037v-1a.872.872 0 0 0-.489.13.657.657 0 0 0-.293.557h1Z"/></svg>
